X:57
T:Hammy Hamilton's
Z: id:dc-jig-47
M:6/8
L:1/8
K:G Major
B|dBG cGE|DED GFG|BAB dBG|dcB ABc|!
dBG cGE|DED GFG|BAB dcA|AGF G2:|!
B|dBG ecA|fef gfg|ege dBG|dcB ABc|!
[1 dBG ecA|fef gfg|ege dcA|AGF G2:|!
[2 dBG cGE|DED GFG|BAB dcA|AGF G2|]!

